X: 2172
Q: "Strathspey."
M: C
L: 1/8
K: D
ua |\
vf>vdud>uA G>FE>D | (3FGA A,>D E>FG>a |\
f>dd>A G>FE>D | C>EA,>E D2D ::\
d>ef>g a>df2 |
e>Af>A g>Ae>A |\
[1 d>ef>g a>ba2 | (3Bcd (3efg f>dd>f :|\
[2 (3fed (3cde (3dcB (3AGF | G>EC>E FDD2 |]


